X:1
T:Title
%%score { ( 1 2 ) | ( 3 4 ) }
L:1/8
Q:1/4=100
M:4/4
K:Ab
V:1 treble nm="Grand Piano"
V:2 treble 
V:3 treble 
V:4 treble 
V:1
 z4 [Ge]4 | A>A AA [=Ec]4 | [A,DF][A,EG][A,FA][A,DF] .[A,CE]2 [DB][Ec] | [EB]2 [A=d]2 [Ge]4 | %4
 z4 [Ge]4 | z4 [=Ec]4 | F[EG][FA][A,DF] .[A,CE]2 [DB][Ec] |[M:7/8] [=DB]2 [_DB]2 [CA]3 | %8
[M:1/4] e>e |[M:4/4] e6 z2 |[M:3/4] c6 |[M:1/4] [EA]>[EG] |[M:4/4] [EG]2 [DF]2 [DF]2 [=DB]>[FA] | %13
 [FA]2 G2 G2 e>e | e6 z2 | c6 z2 | F2 A2 E>A B>[Ec] | [=DB]2 [_DB]2 [CA]4 |] %18
V:2
 c>c cc z2 D2 | x8 | x8 | x8 | c>c cc z2 D2 | A>A AA z2 B,2 | x8 |[M:7/8] x7 |[M:1/4] x2 | %9
[M:4/4] z2 G>G A2 c>c |[M:3/4] z2 =E>E F2 |[M:1/4] x2 |[M:4/4] x8 | x8 | z2 G>G A2 c>c | %15
 z2 =E>E F2 [_EA]>[EG] | x8 | x8 |] %18
V:3
 [A,EA]>[A,EA] [A,EA][A,A][K:bass] B,2 z2 | [F,CF]>[F,CF] [F,CF][F,A,F] G,2 B,2 | %2
 D,D,D,D, z A[A,,A,][A,,A,] | [B,,G,]2 [B,,B,]2 [E,B,]4 | %4
 [A,EA]>[A,EA] [A,EA][A,A][K:bass] B,2 z2 | [F,CF]>[F,CF] [F,CF][F,A,F] G,2 z2 | %6
 [D,A,D][D,A,][D,G,]D, z A[A,,A,][A,,A,] |[M:7/8] [B,,A,]2 [E,G,]2 [A,,A,]3 |[M:1/4] z2 | %9
[M:4/4] z2 [E,B,]>[E,B,] [A,C]2 z2 |[M:3/4] z2 [C,G,]>[C,G,] [F,A,]2 |[M:1/4] [C,A,]>[C,A,] | %12
[M:4/4] [D,A,]2 [D,A,]2 [D,A,]2 [B,,A,]>[B,,B,] | [E,B,]2 [E,B,E]2 [E,B,E]2 z2 | %14
 z2 [E,B,]>[E,B,] [A,C]2 z2 | z2 [C,G,]>[C,G,] [F,A,]2 [C,A,]>[C,A,] | %16
 [D,A,D]2 [F,A,D]2 [A,C]>[A,C] [A,D]>[A,,A,] | [B,,A,]2 [E,G,]2 [A,,A,]4 |] %18
V:4
 z4[K:bass] E,4 | z4 C,4 | z4 A,,2 z2 | x8 | z4[K:bass] E,4 | z4 C,4 | z4 A,,2 z2 |[M:7/8] x7 | %8
[M:1/4] x2 |[M:4/4] x8 |[M:3/4] x6 |[M:1/4] x2 |[M:4/4] x8 | x8 | x8 | x8 | x8 | x8 |] %18

